X:1
T:Ascension, 77.77 alleluias
T:Ascension, 77.77 alleluias
T:William Henry Monk, 1861
T:Public Domain Courtesy of the Cyber Hymnal™
C:William Henry Monk, 1861
Z:Public Domain
Z:Courtesy of the Cyber Hymnal™
%%score ( 1 2 ) ( 3 4 )
L:1/8
Q:1/4=115
M:4/4
K:A
V:1 treble 
V:2 treble 
V:3 bass 
V:4 bass 
V:1
 [Ac]2 [Ge]2 [FA]2 [EA]2 | [FB]2 [Ed]2 [Ec]4 | c4 e2 A2 | B4 [EA]4 | [Ac]2 [Ge]2 [FA]2 [EA]2 | %5
 [FB]2 [Ed]2 [Ec]4 | c4 e2 A2 | B4 [Ac]4 | [EB]2 [^Ec]2 [FA]2 [^DB]2 | [EG]2 [EB]2 [^DF]4 | %10
 G4 B2 E2 | F4 E4 | E2 (FG) [CA]2 [EB]2 | [Ec]2 [Ad]2 !fermata![Ge]4 | c4 e2 A2 | B4 A4 |] %16
V:2
 x8 | x8 | E6 A2 | A2 G2 x4 | x8 | x8 | E6 A2 | A2 G2 x4 | x8 | x8 | E6 E2 | E2 ^D2 E4 | E2 D2 x4 | %13
 x8 | E6 A2 | A2 G2 A4 |] %16
V:3
 [A,C]2 [E,C]2 [F,C]2 [C,A,]2 | [D,A,]2 [E,G,]2 [A,,A,]4 | A,4 [G,B,]2 [F,C]2 | [E,D]4 [A,,C]4 | %4
 [A,E]2 [E,E]2 [F,C]2 [C,A,]2 | [D,A,]2 [E,G,]2 [A,,A,]4 | A,4 [G,B,]2 [F,C]2 | [E,E]4 [A,,E]4 | %8
 [E,G,]2 [C,C]2 [F,C]2 [B,,B,]2 | [E,B,]2 [G,,B,]2 [B,,B,]4 | [E,B,]4 G,2 [C,G,]2 | %11
 [B,,A,]4 [E,G,]4 | [C,A,]2 [B,,D]2 [F,A,]2 [E,G,]2 | A,2 [F,A,]2 !fermata![E,B,]4 | %14
 A,4 [G,B,]2 [F,C]2 | [E,D]4 [A,C]4 |] %16
V:4
 x8 | x8 | A,4 x4 | x8 | x8 | x8 | A,4 x4 | x8 | x8 | x8 | x4 G,2 x2 | x8 | x8 | A,2 x6 | A,4 x4 | %15
 x8 |] %16

